X: 1613
T: Reng-i Ruhsârına Gülgûn Dediler
C: Şevki Bey
O: Turkey
F: http://compmusic.upf.edu/node/140
N: ussak--sarki--agiraksak--reng-i_ruhsarina--sevki_bey
N: makam= ussak
N: form= sarki
N: usul= agiraksak = 9/4
M: 9/4
L: 1/16
K: C _2/4B   
Q: 1/4=66
%%MIDI tuningsystem comma53
z8 z2G4c2 B2cB A2BA G3B A3c B3d  | \
w:  Reng_ i  ruh *  *  *  *  *  sâ  | 
c2df edcB A2Bc d2ed dc2B cBBA A3f edcB A4  | 
w:  *  *  *  *  *  *  *  *  rı *  *  na  *  gül *  *  *  *  *  *  gûn  SAZ  | 
z2f4ed c2d4cB A2ef g2fe eddc d4 GABc  | 
w:  de  *  *  *  *  *  *  *  de *  *  di *  ler   *  *  *  *  SAZ  | 
d8 z2c4d2 d8 e2de d2cd cBAB  | d2c4B4d_3/4e d2g2 ^fe2d feed d4 d2d=e dcBA  | 
w:  *  Şî ve  i  hüs  |  *  *  *  nü *  *  ne  ef *  *  *  *  *  *  zûn   | 
G2c4BA G2B4AG ^3/4F2AB cdBA A6ef eddc  | 
w:  *  de  *  *  *  *  *  *  *  de *  *  *  di *  ler   SAZ  | 
d8 z2c4d2 d8 e2de d2cd cBAB  | d2c4B4d_3/4e d2g2 ^fe2d feed d4 d2d=e dcBA  | 
w:  *  Şî ve  i  hüs  |  *  *  *  nü *  *  ne  ef *  *  *  *  *  *  zûn   | 
G2c4BA G2B4AG ^3/4F2AB cdBA A6^fg agfg  | 
w:  *  de  *  *  *  *  *  *  *  de *  *  *  di *  ler   SAZ  | 
a8 z2g4a2 a8 _b2ag ^f2_7/8ef g2fe  | \
w:  *  Hâl_ i  şû rî  | 
d3g ^fga2 z2g4_b2 a2g2 f2_7/8e2 feed d3=f =egf2  | 
w:  *  *  *  *  *  de me  mef *  *  *  tûn   | 
z2f4ed c2d4cB A2ef g2fe eddc d4 GABc  | 
w:  de  *  *  *  *  *  *  *  de *  *  di *  ler   *  *  *  *  SAZ  | 
d8 z2c4d2 d8 e2de d2cd cBAB  | d2c4B4d_3/4e d2g2 ^fe2d feed d4 d2d=e dcBA  | 
w:  *  Şî ve  i  hüs  |  *  *  *  nü *  *  ne  ef *  *  *  *  *  *  zûn   | 
G2c4BA G2B4AG ^3/4F2AB cdBA A6ef eddc  | 
w:  *  de  *  *  *  *  *  *  *  de *  *  *  di *  ler   SAZ  | 
d8 z2c4d2 d8 e2de d2cd cBAB  | d2c4B4d_3/4e d2g2 ^fe2d feed d4 d2d=e dcBA  | 
w:  *  Şî ve  i  hüs  |  *  *  *  nü *  *  ne  ef *  *  *  *  *  *  zûn   | 
G2c4BA G2B4AG ^3/4F2AB cdBA A6|
w:  *  de  *  *  *  *  *  *  *  de *  *  *  di *  ler    | 


